dist/img/svg/maker-Finland.svg

<svg width="22" height="18" viewBox="0 0 22 18" fill="none" xmlns="http://www.w3.org/2000/svg">
<g clip-path="url(#clip0_1166_1206)">
<path d="M1 1.5H21V16.5H1V1.5Z" fill="white"/>
<path d="M1 6.95312H21V11.0469H1V6.95312Z" fill="#003580"/>
<path d="M6.48439 1.5H10.575V16.5H6.48126L6.48439 1.5Z" fill="#003580"/>
</g>
<rect x="0.5" y="1" width="21" height="16" stroke="#E3E3E3"/>
<defs>
<clipPath id="clip0_1166_1206">
<rect x="1" y="1.5" width="20" height="15" fill="white"/>
</clipPath>
</defs>
</svg>

<svg width="22" height="18" viewBox="0 0 22 18" fill="none" xmlns="http://www.w3.org/2000/svg"><g clip-path="url(#clip0_1166_1206)"><path d="M1 1.5h20v15H1v-15z" fill="#fff"/><path d="M1 6.953h20v4.094H1V6.953z" fill="#003580"/><path d="M6.484 1.5h4.091v15H6.481l.003-15z" fill="#003580"/></g><path stroke="#E3E3E3" d="M.5 1h21v16H.5z"/><defs><clipPath id="clip0_1166_1206"><path fill="#fff" d="M1 1.5h20v15H1z"/></clipPath></defs></svg>
